bernoullicharts/1_1_x_two-coin_special_case__bound.svg

<?xml version="1.0" encoding="utf-8" standalone="no"?>
<!DOCTYPE svg PUBLIC "-//W3C//DTD SVG 1.1//EN"
  "http://www.w3.org/Graphics/SVG/1.1/DTD/svg11.dtd">
<!-- Created with matplotlib (https://matplotlib.org/) -->
<svg height="345.6pt" version="1.1" viewBox="0 0 460.8 345.6" width="460.8pt" xmlns="http://www.w3.org/2000/svg" xmlns:xlink="http://www.w3.org/1999/xlink">
 <defs>
  <style type="text/css">
*{stroke-linecap:butt;stroke-linejoin:round;}
  </style>
 </defs>
 <g id="figure_1">
  <g id="patch_1">
   <path d="M 0 345.6 
L 460.8 345.6 
L 460.8 0 
L 0 0 
z
" style="fill:#ffffff;"/>
  </g>
  <g id="axes_1">
   <g id="patch_2">
    <path d="M 57.6 307.584 
L 414.72 307.584 
L 414.72 41.472 
L 57.6 41.472 
z
" style="fill:#ffffff;"/>
   </g>
   <g id="matplotlib.axis_1">
    <g id="xtick_1">
     <g id="line2d_1">
      <defs>
       <path d="M 0 0 
L 0 3.5 
" id="m48e27848fd" style="stroke:#000000;stroke-width:0.8;"/>
      </defs>
      <g>
       <use style="stroke:#000000;stroke-width:0.8;" x="73.800255" xlink:href="#m48e27848fd" y="307.584"/>
      </g>
     </g>
     <g id="text_1">
      <text style="font-family:DejaVu Sans;font-size:10px;font-style:normal;font-weight:normal;text-anchor:middle;" transform="rotate(-0, 73.800255, 322.182437)" x="73.800255" y="322.182437">0.0</text>
     </g>
    </g>
    <g id="xtick_2">
     <g id="line2d_2">
      <g>
       <use style="stroke:#000000;stroke-width:0.8;" x="138.744153" xlink:href="#m48e27848fd" y="307.584"/>
      </g>
     </g>
     <g id="text_2">
      <text style="font-family:DejaVu Sans;font-size:10px;font-style:normal;font-weight:normal;text-anchor:middle;" transform="rotate(-0, 138.744153, 322.182437)" x="138.744153" y="322.182437">0.2</text>
     </g>
    </g>
    <g id="xtick_3">
     <g id="line2d_3">
      <g>
       <use style="stroke:#000000;stroke-width:0.8;" x="203.688051" xlink:href="#m48e27848fd" y="307.584"/>
      </g>
     </g>
     <g id="text_3">
      <text style="font-family:DejaVu Sans;font-size:10px;font-style:normal;font-weight:normal;text-anchor:middle;" transform="rotate(-0, 203.688051, 322.182437)" x="203.688051" y="322.182437">0.4</text>
     </g>
    </g>
    <g id="xtick_4">
     <g id="line2d_4">
      <g>
       <use style="stroke:#000000;stroke-width:0.8;" x="268.631949" xlink:href="#m48e27848fd" y="307.584"/>
      </g>
     </g>
     <g id="text_4">
      <text style="font-family:DejaVu Sans;font-size:10px;font-style:normal;font-weight:normal;text-anchor:middle;" transform="rotate(-0, 268.631949, 322.182437)" x="268.631949" y="322.182437">0.6</text>
     </g>
    </g>
    <g id="xtick_5">
     <g id="line2d_5">
      <g>
       <use style="stroke:#000000;stroke-width:0.8;" x="333.575847" xlink:href="#m48e27848fd" y="307.584"/>
      </g>
     </g>
     <g id="text_5">
      <text style="font-family:DejaVu Sans;font-size:10px;font-style:normal;font-weight:normal;text-anchor:middle;" transform="rotate(-0, 333.575847, 322.182437)" x="333.575847" y="322.182437">0.8</text>
     </g>
    </g>
    <g id="xtick_6">
     <g id="line2d_6">
      <g>
       <use style="stroke:#000000;stroke-width:0.8;" x="398.519745" xlink:href="#m48e27848fd" y="307.584"/>
      </g>
     </g>
     <g id="text_6">
      <text style="font-family:DejaVu Sans;font-size:10px;font-style:normal;font-weight:normal;text-anchor:middle;" transform="rotate(-0, 398.519745, 322.182437)" x="398.519745" y="322.182437">1.0</text>
     </g>
    </g>
    <g id="text_7">
     <text style="font-family:DejaVu Sans;font-size:10px;font-style:normal;font-weight:normal;text-anchor:middle;" transform="rotate(-0, 236.16, 335.860562)" x="236.16" y="335.860562">Input Coin's Heads Probability (λ)</text>
    </g>
   </g>
   <g id="matplotlib.axis_2">
    <g id="ytick_1">
     <g id="line2d_7">
      <defs>
       <path d="M 0 0 
L -3.5 0 
" id="mfd3b67a862" style="stroke:#000000;stroke-width:0.8;"/>
      </defs>
      <g>
       <use style="stroke:#000000;stroke-width:0.8;" x="57.6" xlink:href="#mfd3b67a862" y="295.493696"/>
      </g>
     </g>
     <g id="text_8">
      <text style="font-family:DejaVu Sans;font-size:10px;font-style:normal;font-weight:normal;text-anchor:end;" transform="rotate(-0, 50.6, 299.292914)" x="50.6" y="299.292914">0.0</text>
     </g>
    </g>
    <g id="ytick_2">
     <g id="line2d_8">
      <g>
       <use style="stroke:#000000;stroke-width:0.8;" x="57.6" xlink:href="#mfd3b67a862" y="249.933301"/>
      </g>
     </g>
     <g id="text_9">
      <text style="font-family:DejaVu Sans;font-size:10px;font-style:normal;font-weight:normal;text-anchor:end;" transform="rotate(-0, 50.6, 253.73252)" x="50.6" y="253.73252">0.2</text>
     </g>
    </g>
    <g id="ytick_3">
     <g id="line2d_9">
      <g>
       <use style="stroke:#000000;stroke-width:0.8;" x="57.6" xlink:href="#mfd3b67a862" y="204.372906"/>
      </g>
     </g>
     <g id="text_10">
      <text style="font-family:DejaVu Sans;font-size:10px;font-style:normal;font-weight:normal;text-anchor:end;" transform="rotate(-0, 50.6, 208.172125)" x="50.6" y="208.172125">0.4</text>
     </g>
    </g>
    <g id="ytick_4">
     <g id="line2d_10">
      <g>
       <use style="stroke:#000000;stroke-width:0.8;" x="57.6" xlink:href="#mfd3b67a862" y="158.812512"/>
      </g>
     </g>
     <g id="text_11">
      <text style="font-family:DejaVu Sans;font-size:10px;font-style:normal;font-weight:normal;text-anchor:end;" transform="rotate(-0, 50.6, 162.61173)" x="50.6" y="162.61173">0.6</text>
     </g>
    </g>
    <g id="ytick_5">
     <g id="line2d_11">
      <g>
       <use style="stroke:#000000;stroke-width:0.8;" x="57.6" xlink:href="#mfd3b67a862" y="113.252117"/>
      </g>
     </g>
     <g id="text_12">
      <text style="font-family:DejaVu Sans;font-size:10px;font-style:normal;font-weight:normal;text-anchor:end;" transform="rotate(-0, 50.6, 117.051336)" x="50.6" y="117.051336">0.8</text>
     </g>
    </g>
    <g id="ytick_6">
     <g id="line2d_12">
      <g>
       <use style="stroke:#000000;stroke-width:0.8;" x="57.6" xlink:href="#mfd3b67a862" y="67.691722"/>
      </g>
     </g>
     <g id="text_13">
      <text style="font-family:DejaVu Sans;font-size:10px;font-style:normal;font-weight:normal;text-anchor:end;" transform="rotate(-0, 50.6, 71.490941)" x="50.6" y="71.490941">1.0</text>
     </g>
    </g>
    <g id="text_14">
     <text style="font-family:DejaVu Sans;font-size:10px;font-style:normal;font-weight:normal;text-anchor:middle;" transform="rotate(-90, 28.617187, 174.528)" x="28.617187" y="174.528">Coin Flips Needed</text>
    </g>
   </g>
   <g id="line2d_13">
    <path clip-path="url(#p96cf160217)" d="M 73.832727 67.760047 
L 77.112066 74.544959 
L 80.391405 81.107193 
L 83.670744 87.455869 
L 86.950083 93.599654 
L 90.229421 99.54679 
L 93.50876 105.305114 
L 96.788099 110.882087 
L 100.067438 116.284812 
L 103.346777 121.520055 
L 106.626116 126.594262 
L 109.905455 131.513582 
L 113.184793 136.283876 
L 116.464132 140.910738 
L 119.743471 145.399509 
L 123.02281 149.755288 
L 126.302149 153.982946 
L 129.581488 158.087138 
L 132.860826 162.072315 
L 136.140165 165.942735 
L 139.419504 169.702469 
L 142.698843 173.355416 
L 145.978182 176.905308 
L 149.257521 180.355719 
L 152.53686 183.710074 
L 155.816198 186.971655 
L 159.095537 190.143609 
L 162.374876 193.228955 
L 165.654215 196.230586 
L 168.933554 199.151282 
L 172.212893 201.99371 
L 175.492231 204.760431 
L 178.77157 207.453905 
L 182.050909 210.076497 
L 185.330248 212.630477 
L 188.609587 215.11803 
L 191.888926 217.541256 
L 195.168264 219.902176 
L 198.447603 222.202733 
L 201.726942 224.444799 
L 205.006281 226.630173 
L 208.28562 228.760592 
L 211.564959 230.837724 
L 214.844298 232.86318 
L 218.123636 234.838511 
L 221.402975 236.765212 
L 224.682314 238.644724 
L 227.961653 240.478437 
L 231.240992 242.267692 
L 234.520331 244.013783 
L 237.799669 245.717959 
L 241.079008 247.381425 
L 244.358347 249.005345 
L 247.637686 250.590842 
L 250.917025 252.139001 
L 254.196364 253.650873 
L 257.475702 255.127469 
L 260.755041 256.56977 
L 264.03438 257.978722 
L 267.313719 259.355242 
L 270.593058 260.700214 
L 273.872397 262.014495 
L 277.151736 263.298914 
L 280.431074 264.554273 
L 283.710413 265.781349 
L 286.989752 266.980893 
L 290.269091 268.153631 
L 293.54843 269.30027 
L 296.827769 270.421492 
L 300.107107 271.517957 
L 303.386446 272.590307 
L 306.665785 273.639163 
L 309.945124 274.665125 
L 313.224463 275.668779 
L 316.503802 276.650689 
L 319.78314 277.611404 
L 323.062479 278.551457 
L 326.341818 279.471364 
L 329.621157 280.371624 
L 332.900496 281.252726 
L 336.179835 282.11514 
L 339.459174 282.959324 
L 342.738512 283.785724 
L 346.017851 284.59477 
L 349.29719 285.386882 
L 352.576529 286.162468 
L 355.855868 286.921923 
L 359.135207 287.665631 
L 362.414545 288.393966 
L 365.693884 289.107291 
L 368.973223 289.805959 
L 372.252562 290.490313 
L 375.531901 291.160686 
L 378.81124 291.817403 
L 382.090579 292.460779 
L 385.369917 293.091121 
L 388.649256 293.708728 
L 391.928595 294.313889 
L 395.207934 294.906889 
L 398.487273 295.488 
" style="fill:none;stroke:#1f77b4;stroke-linecap:square;stroke-width:1.5;"/>
   </g>
   <g id="line2d_14">
    <path clip-path="url(#p96cf160217)" d="M 73.832727 68.60293 
L 77.112066 75.436989 
L 80.391405 66.780514 
L 83.670744 53.568 
L 86.950083 81.359841 
L 90.229421 77.259405 
L 93.50876 74.525782 
L 96.788099 82.726653 
L 100.067438 82.271049 
L 103.346777 81.815445 
L 106.626116 113.707721 
L 109.905455 102.317622 
L 113.184793 113.252117 
L 116.464132 94.572355 
L 119.743471 116.896949 
L 123.02281 112.340909 
L 126.302149 90.927524 
L 129.581488 97.761583 
L 132.860826 116.441345 
L 136.140165 115.985741 
L 139.419504 106.873662 
L 142.698843 85.91588 
L 145.978182 107.78487 
L 149.257521 110.974097 
L 152.53686 123.731008 
L 155.816198 115.985741 
L 159.095537 115.530137 
L 162.374876 120.54178 
L 165.654215 117.808156 
L 168.933554 121.908592 
L 172.212893 113.707721 
L 175.492231 132.387483 
L 178.77157 132.843087 
L 182.050909 138.765938 
L 185.330248 119.174968 
L 188.609587 129.198255 
L 191.888926 136.032314 
L 195.168264 116.441345 
L 198.447603 136.943522 
L 201.726942 119.630572 
L 205.006281 137.85473 
L 208.28562 150.611641 
L 211.564959 134.209899 
L 214.844298 122.364196 
L 218.123636 154.256472 
L 221.402975 147.878017 
L 224.682314 117.352553 
L 227.961653 155.623284 
L 231.240992 156.534492 
L 234.520331 133.298691 
L 237.799669 145.599997 
L 241.079008 151.067245 
L 244.358347 142.41077 
L 247.637686 146.966809 
L 250.917025 148.333621 
L 254.196364 154.712076 
L 257.475702 129.198255 
L 260.755041 147.422413 
L 264.03438 160.634927 
L 267.313719 157.4457 
L 270.593058 153.800868 
L 273.872397 153.800868 
L 277.151736 163.368551 
L 280.431074 148.789225 
L 283.710413 149.244829 
L 286.989752 159.268116 
L 290.269091 157.901304 
L 293.54843 162.001739 
L 296.827769 159.268116 
L 300.107107 162.001739 
L 303.386446 163.368551 
L 306.665785 164.735363 
L 309.945124 164.735363 
L 313.224463 157.4457 
L 316.503802 163.824155 
L 319.78314 174.303046 
L 323.062479 161.090531 
L 326.341818 169.291402 
L 329.621157 177.492273 
L 332.900496 182.503917 
L 336.179835 160.179323 
L 339.459174 175.669858 
L 342.738512 154.712076 
L 346.017851 181.137105 
L 349.29719 172.025026 
L 352.576529 174.303046 
L 355.855868 171.113818 
L 359.135207 170.658214 
L 362.414545 180.681501 
L 365.693884 173.391838 
L 368.973223 172.48063 
L 372.252562 166.557779 
L 375.531901 173.847442 
L 378.81124 170.658214 
L 382.090579 171.569422 
L 385.369917 171.569422 
L 388.649256 187.059956 
L 391.928595 178.403481 
L 395.207934 178.403481 
L 398.487273 182.959521 
" style="fill:none;stroke:#ff7f0e;stroke-linecap:square;stroke-width:1.5;"/>
   </g>
   <g id="patch_3">
    <path d="M 57.6 307.584 
L 57.6 41.472 
" style="fill:none;stroke:#000000;stroke-linecap:square;stroke-linejoin:miter;stroke-width:0.8;"/>
   </g>
   <g id="patch_4">
    <path d="M 414.72 307.584 
L 414.72 41.472 
" style="fill:none;stroke:#000000;stroke-linecap:square;stroke-linejoin:miter;stroke-width:0.8;"/>
   </g>
   <g id="patch_5">
    <path d="M 57.6 307.584 
L 414.72 307.584 
" style="fill:none;stroke:#000000;stroke-linecap:square;stroke-linejoin:miter;stroke-width:0.8;"/>
   </g>
   <g id="patch_6">
    <path d="M 57.6 41.472 
L 414.72 41.472 
" style="fill:none;stroke:#000000;stroke-linecap:square;stroke-linejoin:miter;stroke-width:0.8;"/>
   </g>
   <g id="text_15">
    <text style="font-family:DejaVu Sans;font-size:12px;font-style:normal;font-weight:normal;text-anchor:middle;" transform="rotate(-0, 236.16, 35.472)" x="236.16" y="35.472">Coin Flips for 1/(1+x)</text>
   </g>
   <g id="legend_1">
    <g id="patch_7">
     <path d="M 119.748125 78.82825 
L 407.72 78.82825 
Q 409.72 78.82825 409.72 76.82825 
L 409.72 48.472 
Q 409.72 46.472 407.72 46.472 
L 119.748125 46.472 
Q 117.748125 46.472 117.748125 48.472 
L 117.748125 76.82825 
Q 117.748125 78.82825 119.748125 78.82825 
z
" style="fill:#ffffff;opacity:0.8;stroke:#cccccc;stroke-linejoin:miter;"/>
    </g>
    <g id="line2d_15">
     <path d="M 121.748125 54.570437 
L 141.748125 54.570437 
" style="fill:none;stroke:#1f77b4;stroke-linecap:square;stroke-width:1.5;"/>
    </g>
    <g id="line2d_16"/>
    <g id="text_16">
     <text style="font-family:DejaVu Sans;font-size:10px;font-style:normal;font-weight:normal;text-anchor:start;" transform="rotate(-0, 149.748125, 58.070437)" x="149.748125" y="58.070437">Coin Flip Lower Bound</text>
    </g>
    <g id="line2d_17">
     <path d="M 121.748125 69.248562 
L 141.748125 69.248562 
" style="fill:none;stroke:#ff7f0e;stroke-linecap:square;stroke-width:1.5;"/>
    </g>
    <g id="line2d_18"/>
    <g id="text_17">
     <text style="font-family:DejaVu Sans;font-size:10px;font-style:normal;font-weight:normal;text-anchor:start;" transform="rotate(-0, 149.748125, 72.748562)" x="149.748125" y="72.748562">Avg. Coins Flipped 1/(1+x) (Two-Coin Special Case)</text>
    </g>
   </g>
  </g>
 </g>
 <defs>
  <clipPath id="p96cf160217">
   <rect height="266.112" width="357.12" x="57.6" y="41.472"/>
  </clipPath>
 </defs>
</svg>

<svg height="460.8" viewBox="0 0 460.8 345.6" width="614.4" xmlns="http://www.w3.org/2000/svg" xmlns:xlink="http://www.w3.org/1999/xlink"><defs><style>*{stroke-linecap:butt;stroke-linejoin:round}</style></defs><g id="figure_1"><path d="M0 345.6h460.8V0H0z" fill="#fff" id="patch_1"/><g id="axes_1"><path d="M57.6 307.584h357.12V41.472H57.6z" fill="#fff" id="patch_2"/><g id="matplotlib.axis_1"><g id="xtick_1"><g id="line2d_1"><defs><path d="M0 0v3.5" id="m48e27848fd" stroke="#000" stroke-width=".8"/></defs><use x="73.8" xlink:href="#m48e27848fd" y="307.584" stroke="#000" stroke-width=".8"/></g><text x="73.8" y="322.182" font-family="DejaVu Sans" font-size="10" font-weight="400" text-anchor="middle" id="text_1">0.0</text></g><g id="xtick_2"><use x="138.744" xlink:href="#m48e27848fd" y="307.584" stroke="#000" stroke-width=".8" id="line2d_2"/><text x="138.744" y="322.182" font-family="DejaVu Sans" font-size="10" font-weight="400" text-anchor="middle" id="text_2">0.2</text></g><g id="xtick_3"><use x="203.688" xlink:href="#m48e27848fd" y="307.584" stroke="#000" stroke-width=".8" id="line2d_3"/><text x="203.688" y="322.182" font-family="DejaVu Sans" font-size="10" font-weight="400" text-anchor="middle" id="text_3">0.4</text></g><g id="xtick_4"><use x="268.632" xlink:href="#m48e27848fd" y="307.584" stroke="#000" stroke-width=".8" id="line2d_4"/><text x="268.632" y="322.182" font-family="DejaVu Sans" font-size="10" font-weight="400" text-anchor="middle" id="text_4">0.6</text></g><g id="xtick_5"><use x="333.576" xlink:href="#m48e27848fd" y="307.584" stroke="#000" stroke-width=".8" id="line2d_5"/><text x="333.576" y="322.182" font-family="DejaVu Sans" font-size="10" font-weight="400" text-anchor="middle" id="text_5">0.8</text></g><g id="xtick_6"><use x="398.52" xlink:href="#m48e27848fd" y="307.584" stroke="#000" stroke-width=".8" id="line2d_6"/><text x="398.52" y="322.182" font-family="DejaVu Sans" font-size="10" font-weight="400" text-anchor="middle" id="text_6">1.0</text></g><text x="236.16" y="335.861" font-family="DejaVu Sans" font-size="10" font-weight="400" text-anchor="middle" id="text_7">Input Coin&apos;s Heads Probability (λ)</text></g><g id="matplotlib.axis_2"><g id="ytick_1"><g id="line2d_7"><defs><path d="M0 0h-3.5" id="mfd3b67a862" stroke="#000" stroke-width=".8"/></defs><use x="57.6" xlink:href="#mfd3b67a862" y="295.494" stroke="#000" stroke-width=".8"/></g><text x="50.6" y="299.293" font-family="DejaVu Sans" font-size="10" font-weight="400" text-anchor="end" id="text_8">0.0</text></g><g id="ytick_2"><use x="57.6" xlink:href="#mfd3b67a862" y="249.933" stroke="#000" stroke-width=".8" id="line2d_8"/><text x="50.6" y="253.733" font-family="DejaVu Sans" font-size="10" font-weight="400" text-anchor="end" id="text_9">0.2</text></g><g id="ytick_3"><use x="57.6" xlink:href="#mfd3b67a862" y="204.373" stroke="#000" stroke-width=".8" id="line2d_9"/><text x="50.6" y="208.172" font-family="DejaVu Sans" font-size="10" font-weight="400" text-anchor="end" id="text_10">0.4</text></g><g id="ytick_4"><use x="57.6" xlink:href="#mfd3b67a862" y="158.813" stroke="#000" stroke-width=".8" id="line2d_10"/><text x="50.6" y="162.612" font-family="DejaVu Sans" font-size="10" font-weight="400" text-anchor="end" id="text_11">0.6</text></g><g id="ytick_5"><use x="57.6" xlink:href="#mfd3b67a862" y="113.252" stroke="#000" stroke-width=".8" id="line2d_11"/><text x="50.6" y="117.051" font-family="DejaVu Sans" font-size="10" font-weight="400" text-anchor="end" id="text_12">0.8</text></g><g id="ytick_6"><use x="57.6" xlink:href="#mfd3b67a862" y="67.692" stroke="#000" stroke-width=".8" id="line2d_12"/><text x="50.6" y="71.491" font-family="DejaVu Sans" font-size="10" font-weight="400" text-anchor="end" id="text_13">1.0</text></g><text transform="rotate(-90 28.617 174.528)" x="28.617" y="174.528" font-family="DejaVu Sans" font-size="10" font-weight="400" text-anchor="middle" id="text_14">Coin Flips Needed</text></g><path clip-path="url(#p96cf160217)" d="M73.833 67.76l3.28 6.785 3.278 6.562 3.28 6.349 3.28 6.144 3.278 5.947 3.28 5.758 3.28 5.577 3.278 5.403 3.28 5.235 3.28 5.074 3.278 4.92 3.28 4.77 3.28 4.627 3.278 4.489 3.28 4.355 3.28 4.228 3.278 4.104 3.28 3.985 3.28 3.87 3.279 3.76 3.279 3.653 3.28 3.55 3.279 3.45 3.279 3.355 3.28 3.262 3.279 3.172 3.279 3.085 3.28 3.002 3.279 2.92 3.279 2.843 3.28 2.766 3.279 2.694 3.279 2.622 3.28 2.554 3.279 2.488 3.279 2.423 3.28 2.361 3.279 2.3 3.279 2.243 3.28 2.185 3.279 2.13 3.279 2.078 3.28 2.025 3.279 1.976 3.279 1.926 3.28 1.88 3.279 1.833 3.279 1.79 3.28 1.746 3.279 1.704 3.279 1.663 3.28 1.624 3.279 1.586 3.279 1.548 3.28 1.512 3.279 1.476 3.279 1.443 3.28 1.409 3.279 1.376 3.28 1.345 3.278 1.314 3.28 1.285 3.28 1.255 3.278 1.227 3.28 1.2 3.28 1.173 3.278 1.146 3.28 1.121 3.28 1.097 3.278 1.072 3.28 1.05 3.28 1.025 3.278 1.004 3.28.982 3.28.96 3.278.94 3.28.92 3.28.9 3.278.882 3.28.862 3.28.844 3.279.827 3.279.809 3.28.792 3.279.775 3.279.76 3.28.744 3.279.728 3.279.713 3.28.699 3.279.684 3.279.67 3.28.657 3.279.644 3.279.63 3.28.618 3.279.605 3.279.593 3.28.581" fill="none" stroke="#1f77b4" stroke-linecap="square" stroke-width="1.5" id="line2d_13"/><path clip-path="url(#p96cf160217)" d="M73.833 68.603l3.28 6.834 3.278-8.656 3.28-13.213 3.28 27.792 3.278-4.1 3.28-2.734 3.28 8.2 3.278-.455 3.28-.456 3.28 31.893 3.278-11.39 3.28 10.934 3.28-18.68 3.278 22.325 3.28-4.556 3.28-21.413 3.278 6.834 3.28 18.68 3.28-.456 3.279-9.112 3.279-20.958 3.28 21.869 3.279 3.19 3.279 12.756 3.28-7.745 3.279-.456 3.279 5.012 3.28-2.734 3.279 4.1 3.279-8.2 3.28 18.68 3.279.455 3.279 5.923 3.28-19.591 3.279 10.023 3.279 6.834 3.28-19.59 3.279 20.502 3.279-17.313 3.28 18.224 3.279 12.757 3.279-16.402 3.28-11.846 3.279 31.892 3.279-6.378 3.28-30.525 3.279 38.27 3.279.911 3.28-23.235L237.8 145.6l3.279 5.467 3.28-8.656 3.279 4.556 3.279 1.367 3.28 6.378 3.279-25.514 3.279 18.224 3.28 13.213 3.279-3.19 3.28-3.644h3.278l3.28 9.568 3.28-14.58 3.278.456 3.28 10.023 3.28-1.367 3.278 4.1 3.28-2.733 3.28 2.734 3.278 1.367 3.28 1.366h3.28l3.278-7.29 3.28 6.38 3.28 10.478 3.278-13.212 3.28 8.2 3.28 8.201 3.278 5.012 3.28-22.325 3.28 15.49 3.279-20.957 3.279 26.425 3.28-9.112 3.279 2.278 3.279-3.19 3.28-.455 3.279 10.024 3.279-7.29 3.28-.911 3.279-5.923 3.279 7.29 3.28-3.19 3.279.911h3.279l3.28 15.491 3.279-8.657h3.279l3.28 4.557" fill="none" stroke="#ff7f0e" stroke-linecap="square" stroke-width="1.5" id="line2d_14"/><path d="M57.6 307.584V41.472" fill="none" stroke="#000" stroke-linecap="square" stroke-width=".8" id="patch_3"/><path d="M414.72 307.584V41.472" fill="none" stroke="#000" stroke-linecap="square" stroke-width=".8" id="patch_4"/><path d="M57.6 307.584h357.12" fill="none" stroke="#000" stroke-linecap="square" stroke-width=".8" id="patch_5"/><path d="M57.6 41.472h357.12" fill="none" stroke="#000" stroke-linecap="square" stroke-width=".8" id="patch_6"/><text x="236.16" y="35.472" font-family="DejaVu Sans" font-size="12" font-weight="400" text-anchor="middle" id="text_15">Coin Flips for 1/(1+x)</text><g id="legend_1"><path d="M119.748 78.828H407.72q2 0 2-2V48.472q0-2-2-2H119.748q-2 0-2 2v28.356q0 2 2 2z" fill="#fff" opacity=".8" stroke="#ccc" id="patch_7"/><path d="M121.748 54.57h20" fill="none" stroke="#1f77b4" stroke-linecap="square" stroke-width="1.5" id="line2d_15"/><text x="149.748" y="58.07" font-family="DejaVu Sans" font-size="10" font-weight="400" id="text_16">Coin Flip Lower Bound</text><path d="M121.748 69.249h20" fill="none" stroke="#ff7f0e" stroke-linecap="square" stroke-width="1.5" id="line2d_17"/><text x="149.748" y="72.749" font-family="DejaVu Sans" font-size="10" font-weight="400" id="text_17">Avg. Coins Flipped 1/(1+x) (Two-Coin Special Case)</text></g></g></g><defs><clipPath id="p96cf160217"><path d="M57.6 41.472h357.12v266.112H57.6z"/></clipPath></defs></svg>
